assets/sequelize/plain.svg

<svg viewBox="0 0 128 128" xmlns="http://www.w3.org/2000/svg"><g fill="#2f406a"><path d="m101.84 41.72v44.28l-37.66 22.32-.34.31v16.57l.34.32 53-30.64v-61.76l-.5-.12-15 8.36.08.36"/><path d="m26.4 86.4 37.78 21.92v17.2l-53.4-30.76v-61.52l.55-.08 14.91 8.67.16.5z"/><path d="m26.4 42.32-15.62-9.08 53.28-30.76 53.16 30.64-15.38 8.6-37.78-21.56zm3.66 41.68v-18.1l.41.24 14.53 8.45.12.07v17.53zm53.21 8.6v-17.6l.1-.05 14.27-8.35.44-.26v17.5zm-18.42 10.86-.41-.42v-17.04l.51-.18 14.27-8.32.44-.25v17.45l-14.8 8.76"/><path d="m49.8 95.23v-18.06l.41.23 14.51 8.45.12 17.61zm13.49-72.29-14.81 8.76 15.05 8.76 14.8-8.64zm-33.23 37.42v-17.81h.41l14.53 8.45.12.33v17.26z"/><path d="m44.86 33.8-14.8 8.76 15.05 8.76 14.8-8.64zm38.41 35.2v-17.3l.1-.41 14.27-8.29.44.1v17.11z"/><path d="m83 34.21-14.78 8.79 15.05 8.76 14.8-8.64zm-18.15 45.64-.41-.42v-16.64l.41-.21.1-.41 14.27-8.32.44.1v17.14l-14.8 8.76"/><path d="m49.8 71.63v-17.81h.41l14.51 8.45.12.33v17.25z"/><path d="m64.6 45.06-14.8 8.76 15.05 8.76 14.8-8.64z"/></g></svg>

<svg xmlns="http://www.w3.org/2000/svg" viewBox="0 0 128 128"><g fill="#2f406a"><path d="M101.84 41.72V86l-37.66 22.32-.34.31v16.57l.34.32 53-30.64V33.12l-.5-.12-15 8.36.08.36"/><path d="m26.4 86.4 37.78 21.92v17.2l-53.4-30.76V33.24l.55-.08 14.91 8.67.16.5z"/><path d="m26.4 42.32-15.62-9.08L64.06 2.48l53.16 30.64-15.38 8.6-37.78-21.56zM30.06 84V65.9l.41.24L45 74.59l.12.07v17.53zm53.21 8.6V75l.1-.05 14.27-8.35.44-.26v17.5zm-18.42 10.86-.41-.42V86l.51-.18 14.27-8.32.44-.25V94.7l-14.8 8.76"/><path d="M49.8 95.23V77.17l.41.23 14.51 8.45.12 17.61zm13.49-72.29L48.48 31.7l15.05 8.76 14.8-8.64zM30.06 60.36V42.55h.41L45 51l.12.33v17.26z"/><path d="m44.86 33.8-14.8 8.76 15.05 8.76 14.8-8.64zM83.27 69V51.7l.1-.41L97.64 43l.44.1v17.11z"/><path d="M83 34.21 68.22 43l15.05 8.76 14.8-8.64zM64.85 79.85l-.41-.42V62.79l.41-.21.1-.41 14.27-8.32.44.1v17.14l-14.8 8.76"/><path d="M49.8 71.63V53.82h.41l14.51 8.45.12.33v17.25z"/><path d="m64.6 45.06-14.8 8.76 15.05 8.76 14.8-8.64z"/></g></svg>
